X:322
T:B322-  A New Game at Cards
S:(2nd/2)
Q:1/4=120
L:1/4
M:4/4
K:Dm
A/|d3/2e/f3/2A/|B3/2c/A3/2B/|cccd|G3/2F/Fz|\
A3/2B/c3/2A/|B3/2c/Az/A/|A=Bcc|c3/2=B/c3/2^c/|\
d3/2e/fA|^c3/2d/e3/2e/|fA^cd|d3/2^c/d3/2":s:"e/|\
fA^cd|d3/2^c/d3/2|]

